source/assets/images/linkedin.svg

<?xml version="1.0" encoding="utf-8"?>
<!-- Generator: Adobe Illustrator 18.0.0, SVG Export Plug-In . SVG Version: 6.00 Build 0)  -->
<!DOCTYPE svg PUBLIC "-//W3C//DTD SVG 1.1//EN" "http://www.w3.org/Graphics/SVG/1.1/DTD/svg11.dtd">
<svg version="1.1" xmlns="http://www.w3.org/2000/svg" xmlns:xlink="http://www.w3.org/1999/xlink" x="0px" y="0px"
	 viewBox="0 0 50.1 50.1" enable-background="new 0 0 50.1 50.1" xml:space="preserve">
<g id="Layer_1">
	<path id="linkedin-circle-icon_3_" fill="#FFFFFF" d="M25.1,0C11.2,0,0,11.2,0,25.1s11.2,25.1,25.1,25.1s25.1-11.2,25.1-25.1
		S38.9,0,25.1,0z M18.4,37.2h-5.5V19.4h5.5V37.2z M15.6,17.1c-1.8,0-3.3-1.5-3.3-3.3s1.5-3.3,3.3-3.3c1.8,0,3.3,1.5,3.3,3.3
		S17.4,17.1,15.6,17.1z M39,37.2h-5.5c0,0,0-6.8,0-9.3s-1-4-3-4c-2.2,0-3.4,1.5-3.4,4c0,2.7,0,9.3,0,9.3h-5.3V19.4h5.3v2.4
		c0,0,1.6-2.9,5.4-2.9c3.8,0,6.5,2.3,6.5,7.1C39,30.7,39,37.2,39,37.2z"/>
</g>
<g id="Layer_2" display="none">
</g>
</svg>

<?xml version="1.0" encoding="UTF-8" standalone="no"?>
<svg width="51px" height="51px" viewBox="0 0 51 51" version="1.1" xmlns="http://www.w3.org/2000/svg" xmlns:xlink="http://www.w3.org/1999/xlink">
    <!-- Generator: Sketch 39 (31667) - http://www.bohemiancoding.com/sketch -->
    <title>linkedin-circle-icon_3_</title>
    <desc>Created with Sketch.</desc>
    <defs></defs>
    <g id="Page-1" stroke="none" stroke-width="1" fill="none" fill-rule="evenodd">
        <g id="Layer_1" fill="#5B5B5B">
            <path d="M25.1,0 C11.2,0 0,11.2 0,25.1 C0,39 11.2,50.2 25.1,50.2 C39,50.2 50.2,39 50.2,25.1 C50.2,11.2 38.9,0 25.1,0 L25.1,0 Z M18.4,37.2 L12.9,37.2 L12.9,19.4 L18.4,19.4 L18.4,37.2 L18.4,37.2 Z M15.6,17.1 C13.8,17.1 12.3,15.6 12.3,13.8 C12.3,12 13.8,10.5 15.6,10.5 C17.4,10.5 18.9,12 18.9,13.8 C18.9,15.6 17.4,17.1 15.6,17.1 L15.6,17.1 Z M39,37.2 L33.5,37.2 L33.5,27.9 C33.5,25.4 32.5,23.9 30.5,23.9 C28.3,23.9 27.1,25.4 27.1,27.9 L27.1,37.2 L21.8,37.2 L21.8,19.4 L27.1,19.4 L27.1,21.8 C27.1,21.8 28.7,18.9 32.5,18.9 C36.3,18.9 39,21.2 39,26 L39,37.2 L39,37.2 Z" id="linkedin-circle-icon_3_"></path>
        </g>
    </g>
</svg>
